X: 33
T:Hob y Dylif
T:The Porpoise
M:6/8
L:1/8
Q:130
C:Trad
S:51 Welsh Airs
R:Jig
A:Wales
H:From a facsimile c.1840: A Choice Collection of Fifty-One Welsh Airs
H:adapted for The Harp, Piano-Forte, Harpsichord,
H:Violin, or Flute by Edward Jones
H:"Harper to His Late Majesty King George IV, when
H:Prince of Wales".
Z:brian_martin12345@yahoo.com
K:G
"Frisky"
B/c/|dBe dBG|GAG BAG|G>AG BAG|Bddd2:|| e/f/|g2g gag|f2f fgf|e2e efg|
Be^de3|dcB efg|fag fed|gded2c|BdcB2A|G>AG BAG|Bddd2:||

